X: 3543
T: Big John McNeill
R: barndance
M: 4/4
K: Amajor
|:fa2aa2fa|b2a2f2ed|e3fe2de|f2e2d2de|
fa2aa2fa|b2a2f2e2|e3fe2d2|1 B4ABde:|2 B4ABdf||
|:e3fe2de|f2e2d2f2|e3fe2de|fa2a abaf|
e3fe2de|f2e2d2B2|Bd2B BABd|1 edB2ABdf:|2 edB2ABde||

